X:294
T:
R:polska
S:Efter L. Gardell Enges i Burs.
O:Gotland, Burs
M:3/4
L:1/16
K:D
f2gf e2fe d2d2|c2dc B2cB A2A2|B2cB A2BA G2G2|F2GF E2FE D4::
DFAF DFAF DFAF|DGBG DGBG DGBG|DFAF DFAF DFAF|D2FA dcBA GFED|
DFAF DFAF DFAF|DGBG DGBG DGBG|F2GF E2FE DEFG|ABcd e4 d4:|

